X:1
T:A Hundred Years Ago
M:4/4
L:1/4
K:G
 D/2D/2| G G D D/2D/2|G/2-G/2 G D2| A3 D| A3| A| e e d B/2B/2|d/2-d/2 B G c|\
 B G A F| G3||
